O/open-ix.org logo.svg

<?xml version="1.0" ?>
<svg xmlns="http://www.w3.org/2000/svg" viewBox="0 0 704 112">
	<title>Group 2</title>
	<g id="Page-1" stroke="none" stroke-width="1" fill="none" fill-rule="evenodd">
		<g id="Group-2">
			<path d="M431.199229,7.32924821 C431.628568,7.32924821 432.751693,7.76169812 433.053475,8.04170166 L489.555078,64.7144181 L489.555078,11.6755254 C489.555078,10.2350627 490.703092,8.96260219 492.277335,8.96260219 L509.413551,8.96260219 C510.835347,8.96260219 512.123363,10.2350627 512.123363,11.6755254 L512.123363,107.763407 C512.123363,109.17898 510.835347,110.323884 509.413551,110.323884 L507.136189,110.323884 C506.697517,110.323884 505.558836,109.894545 505.27261,109.608319 L448.867452,52.9418248 L448.730562,52.9418248 L448.730562,106.189165 C448.730562,107.614072 447.591881,108.898977 446.017639,108.898977 L429.030757,108.898977 C427.593406,108.898977 426.236944,107.614072 426.236944,106.189165 L426.19961,9.89594733 C426.19961,8.47726273 427.484515,7.32924821 428.906311,7.32924821 L431.199229,7.32924821 Z M195.849098,7.0890674 C224.406348,7.0890674 247.245303,30.0680246 247.245303,58.6252745 C247.245303,87.1825244 224.406348,109.890811 195.849098,109.890811 C167.285626,109.890811 144.58045,87.1825244 144.58045,58.6252745 C144.58045,30.0680246 167.285626,7.0890674 195.849098,7.0890674 Z M302.509291,8.90193476 C320.074846,8.90193476 334.501251,23.1883376 334.501251,40.4614448 C334.501251,57.9899464 320.361932,72.2954029 303.183223,72.5797592 L302.661737,72.5840732 L278.998327,72.5840732 L278.998327,106.147164 C278.998327,107.519297 277.801068,108.767376 276.440006,108.857944 L276.282293,108.863198 L259.438524,108.863198 C257.916596,108.863198 256.810101,107.665939 256.730227,106.304878 L256.725601,106.147164 L256.725601,51.7455875 L301.221275,51.7455875 C307.365797,51.7455875 312.505417,46.8890817 312.505417,40.4614448 C312.505417,34.5583579 307.527664,30.041328 301.513095,29.8994175 L301.221275,29.8959779 L256.725601,29.8959779 L256.725601,11.6210802 C256.725601,10.2489477 257.775727,8.99798353 259.264796,8.90720173 L259.438524,8.90193476 L302.509291,8.90193476 Z M414.063946,8.90162365 C415.553708,8.90162365 416.675287,10.09822 416.759359,11.4431739 L416.764424,11.6052134 L416.764424,27.1765213 C416.764424,28.5436326 415.700144,29.7813044 414.240907,29.8744876 L414.063946,29.8801111 L366.233119,29.8801111 L366.233119,87.8626219 L414.063946,87.8626219 C415.555915,87.8626219 416.695919,89.0483415 416.778317,90.4168822 L416.783091,90.5755451 L416.783091,106.134408 C416.783091,107.500549 415.698345,108.754176 414.234494,108.845164 L414.063946,108.850443 L346.667094,108.850443 C345.145165,108.850443 344.047326,107.647413 343.968092,106.291481 L343.963504,106.134408 L343.963504,11.6052134 C343.963504,10.250068 345.001896,9.00135075 346.4868,8.90730022 L346.667094,8.90162365 L414.063946,8.90162365 Z M195.849098,29.9186893 C180.287124,29.9186893 167.438072,42.9139647 167.438072,58.6252745 C167.438072,74.1903601 180.287124,87.0363003 195.849098,87.0363003 C211.547963,87.0363003 224.406348,74.1903601 224.406348,58.6252745 C224.406348,42.9139647 211.547963,29.9186893 195.849098,29.9186893 Z M551.749153,50.7447304 C553.170949,50.7447304 554.462076,52.0296355 554.462076,53.4607647 L554.462076,70.5876479 C554.462076,72.0094437 553.170949,73.29746 551.749153,73.29746 L535.228944,73.29746 C533.78537,73.29746 532.506688,72.0094437 532.506688,70.5876479 L532.506688,53.4607647 C532.506688,52.0296355 533.78537,50.7447304 535.228944,50.7447304 L551.749153,50.7447304 Z M413.559628,47.5878461 C414.931761,47.5878461 416.17407,48.7908754 416.264211,50.1523641 L416.26944,50.3101027 L416.26944,65.8596326 C416.26944,67.3785654 415.077951,68.5022583 413.717317,68.5834112 L413.559628,68.5881115 L376.620939,68.5881115 L376.620939,47.5878461 L413.559628,47.5878461 Z" id="Combined-Shape" fill="#005695"/>
			<path d="M594.696407,8.90224588 C596.118203,8.90224588 597.412441,10.1964845 597.412441,11.6213914 L597.412441,106.147475 C597.412441,107.572382 596.118203,108.86351 594.696407,108.86351 L577.56019,108.86351 C576.135284,108.86351 574.847267,107.572382 574.847267,106.147475 L574.847267,11.6213914 C574.847267,10.1964845 576.135284,8.90224588 577.56019,8.90224588 L594.696407,8.90224588 Z M631.890522,8.90629037 C632.879868,8.90629037 633.744767,9.62807727 634.167884,10.1974178 L634.167884,10.1974178 L650.594758,36.754198 L650.728538,36.754198 L650.740982,36.7324199 L664.053595,57.5335718 L664.019372,57.5957948 L664.034928,57.620684 L632.170525,107.554649 C631.738075,108.139545 630.88562,108.851998 629.756273,108.851998 L629.756273,108.851998 L609.897799,108.851998 C607.46488,108.851998 606.179974,106.705305 607.46488,104.847948 L607.46488,104.847948 L637.450148,57.5957948 L608.609783,12.9041187 C607.46488,11.049873 608.609783,8.90629037 611.045814,8.90629037 L611.045814,8.90629037 Z M674.357725,63.6718716 L700.488278,104.847948 C701.773183,106.839084 700.488278,108.851998 698.198471,108.851998 L698.198471,108.851998 L678.367998,108.851998 C677.50621,108.851998 676.364417,108.282658 675.93819,107.554649 L675.93819,107.554649 L661.01089,84.5601357 L674.357725,63.6718716 Z M697.066012,8.90629037 C699.495821,8.90629037 700.780726,11.049873 699.495821,12.9041187 L674.432393,51.5570518 L661.063779,30.6470097 L673.928387,10.1974178 C674.227057,9.62807727 675.222625,8.90629037 676.218193,8.90629037 L697.066012,8.90629037 Z" id="Combined-Shape" fill="#00AEDA"/>
			<path d="M27.2275442,29.35246 L46.9117931,48.5295913 L39.4948104,48.5295913 L27.2275442,36.5641067 L14.9073885,48.5264801 L7.54018421,48.5264801 L27.2275442,29.35246 Z M9.65155979e-14,0.981567965 L23.7007441,23.668077 L9.65155979e-14,46.3763641 L9.65155979e-14,38.9904929 L15.6210864,23.6649658 L9.65155979e-14,8.36121681 L9.65155979e-14,0.981567965 Z M14.9577891,1.32239549e-14 L27.2250553,11.9623735 L39.545211,1.32239549e-14 L46.9124153,1.32239549e-14 L27.2250553,19.1740202 L7.54080644,1.32239549e-14 L14.9577891,1.32239549e-14 Z" id="Combined-Shape" fill="#00AEDA"/>
			<path d="M61.3910872,82.9289595 L81.0722249,102.10298 L73.6583534,102.10298 L61.3910872,90.1406062 L49.0678203,102.10298 L41.7037272,102.10298 L61.3910872,82.9289595 Z M34.1604319,54.5577564 L57.8642871,77.2442654 L34.1604319,99.9494413 L34.1604319,92.5666813 L49.7815182,77.2411543 L34.1604319,61.9342941 L34.1604319,54.5577564 Z M89.5622434,56.541737 L109.246492,75.7157572 L101.882399,75.7157572 L89.5622434,63.7533838 L77.2949772,75.7157572 L69.8779945,75.7157572 L89.5622434,56.541737 Z M116.789788,28.1677339 L116.789788,35.5504939 L101.168701,50.8542429 L116.792899,66.1766588 L116.792899,73.5656411 L93.0890435,50.8604652 L116.789788,28.1677339 Z M49.1166654,53.5730773 L61.3839316,65.5385619 L73.7071985,53.5730773 L81.0712916,53.5730773 L61.3839316,72.7502086 L41.7027939,53.5730773 L49.1166654,53.5730773 Z M77.2461321,27.1892771 L89.5662879,39.1516505 L101.833554,27.1892771 L109.250537,27.1892771 L89.5662879,46.3632972 L69.8789279,27.1892771 L77.2461321,27.1892771 Z" id="Combined-Shape" fill="#005695"/>
		</g>
	</g>
</svg>

<?xml version="1.0" ?>
<svg xmlns="http://www.w3.org/2000/svg" role="img" viewBox="-14.01 -14.01 728.52 138.02">
	<g fill="none" fill-rule="evenodd">
		<path fill="#005695" d="M431.19923 7.32925c.42934 0 1.55246.43245 1.85424.71245l56.5016 56.67272v-53.0389c0-1.44046 1.14802-2.71292 2.72226-2.71292h17.13622c1.4218 0 2.70981 1.27246 2.70981 2.71293v96.08788c0 1.41557-1.28801 2.56047-2.7098 2.56047h-2.27737c-.43867 0-1.57735-.42934-1.86358-.71556l-56.40516-56.6665h-.13689v53.24735c0 1.4249-1.13868 2.7098-2.71292 2.7098h-16.98688c-1.43735 0-2.79382-1.2849-2.79382-2.7098l-.03733-96.29322c0-1.41869 1.2849-2.5667 2.7067-2.5667h2.29292zM195.8491 7.08907c28.55725 0 51.3962 22.97895 51.3962 51.5362s-22.83895 51.26554-51.3962 51.26554c-28.56347 0-51.26865-22.70829-51.26865-51.26554s22.70518-51.5362 51.26865-51.5362zm106.6602 1.81286c17.56555 0 31.99195 14.2864 31.99195 31.55951 0 17.5285-14.13932 31.83396-31.31803 32.11832l-.52148.00431h-23.66341v33.5631c0 1.37213-1.19726 2.6202-2.55832 2.71077l-.15772.00526h-16.84377c-1.52192 0-2.62842-1.19726-2.7083-2.55832l-.00462-.15772V51.7456h44.49568c6.14452 0 11.28414-4.8565 11.28414-11.28415 0-5.90308-4.97776-10.42011-10.99232-10.56202l-.29183-.00344H256.7256v-18.2749c0-1.37213 1.05013-2.6231 2.5392-2.71388l.17372-.00527h43.07077zm111.55465-.0003c1.48976 0 2.61134 1.19659 2.6954 2.54154l.00507.16204v15.57131c0 1.36711-1.06428 2.60478-2.52351 2.69797l-.17696.00562h-47.83083v57.98251h47.83083c1.49197 0 2.63197 1.18572 2.71437 2.55426l.00477.15867v15.55886c0 1.36614-1.08474 2.61977-2.5486 2.71075l-.17054.00528h-67.39686c-1.52192 0-2.61976-1.20303-2.699-2.55896l-.00459-.15707V11.6052c0-1.35514 1.0384-2.60386 2.5233-2.69791l.1803-.00568h67.39685zM195.8491 29.91868c-15.56198 0-28.41103 12.99527-28.41103 28.70658 0 15.56509 12.84905 28.41103 28.41103 28.41103 15.69886 0 28.55725-12.84594 28.55725-28.41103 0-15.7113-12.85839-28.70658-28.55725-28.70658zm355.90005 20.82604c1.4218 0 2.71293 1.2849 2.71293 2.71603v17.12689c0 1.4218-1.29113 2.70981-2.71293 2.70981h-16.5202c-1.44358 0-2.72226-1.28802-2.72226-2.70981V53.46076c0-1.43112 1.27868-2.71603 2.72225-2.71603h16.52021zm-138.18952-3.15688c1.37213 0 2.61444 1.20303 2.70458 2.56451l.00523.15774v15.54953c0 1.51894-1.19149 2.64263-2.55212 2.72378l-.1577.0047h-36.93868V47.58785h36.93869z"/>
		<path fill="#00AEDA" d="M594.6964 8.90225c1.4218 0 2.71604 1.29423 2.71604 2.71914v94.52608c0 1.42491-1.29424 2.71604-2.71603 2.71604h-17.13622c-1.4249 0-2.71292-1.29113-2.71292-2.71604V11.6214c0-1.4249 1.28801-2.71914 2.71292-2.71914h17.13622zm37.19412.00404c.98935 0 1.85425.72179 2.27736 1.29113l16.42688 26.55678h.13378l.01244-.02178 13.31261 20.80115-.03422.06222.01556.0249-31.8644 49.93396c-.43246.5849-1.28491 1.29735-2.41426 1.29735H609.8978c-2.43292 0-3.71783-2.1467-2.43292-4.00405l29.98527-47.25216-28.84037-44.69167c-1.1449-1.85425 0-3.99783 2.43603-3.99783zm42.4672 54.76558l26.13056 41.17608c1.2849 1.99113 0 4.00405-2.2898 4.00405H678.368c-.86179 0-2.00358-.56934-2.42981-1.29735l-14.9273-22.99451 13.34683-20.88827zm22.7083-54.76558c2.4298 0 3.7147 2.14358 2.4298 3.99783L674.4324 51.55705l-13.36861-20.91004 12.8646-20.4496c.29868-.56933 1.29425-1.29112 2.28981-1.29112h20.84782zM27.22753 29.35246L46.9118 48.52959h-7.41698L27.22754 36.56411 14.9074 48.52648h-7.3672l19.68735-19.17402zM0 .98156l23.70074 22.68652L0 46.37636V38.9905l15.62109-15.32552L0 8.36122V.98157zM14.95779 0l12.26727 11.96237L39.5452 0h7.3672L27.22507 19.17402 7.5408 0h7.41698z"/>
		<path fill="#005695" d="M61.39109 82.92896l19.68113 19.17402h-7.41387L61.3911 90.14061l-12.32327 11.96237h-7.3641L61.3911 82.92896zm-27.23066-28.3712l23.70386 22.6865-23.70386 22.70518v-7.38276l15.62109-15.32553L34.16043 61.9343v-7.37653zm55.40181 1.98398l19.68425 19.17402h-7.3641L89.56225 63.75338 77.29498 75.71576h-7.41699l19.68425-19.17402zm27.22755-28.374v7.38275L101.1687 50.85424l15.6242 15.32242v7.38898L93.08904 50.86047l23.70075-22.69274zM49.11667 53.57307l12.26726 11.96548L73.7072 53.57308h7.3641L61.38392 72.7502 41.7028 53.57308h7.41388zm28.12946-26.3838L89.5663 39.15165l12.26726-11.96237h7.41699L89.56629 46.3633 69.87893 27.18928h7.3672z"/>
	</g>
</svg>
